X: 79
T:The Girl With The Green Hat On
% Nottingham Music Database
S:Bob McQuillen Feb 1975, via PR
M:4/4
L:1/4
K:D
(3A/2B/2c/2|"D"dA "A7"A/2B/2A/2G/2|"D"F/2G/2A/2B/2 "A7"AA/2G/2|\
"D"F/2A/2d/2e/2 fd|"A7"eA A(3A/2B/2c/2|
"D"dA "A7"A/2B/2A/2G/2|"D"F/2G/2A/2B/2 A/2B/2c/2d/2|\
"E7"e/2f/2e/2d/2 "A7"c/2A/2B/2c/2|"D"dD D::
c/2d/2|"A"eA e/2c/2d/2e/2|"D"fd fe/2f/2|"Em"gf ed|"A"cB Ac/2d/2|
eA e/2c/2d/2e/2|"D"fd fe/2f/2|"Em"gf "A7"ec|"D"ed d:|<end>
<start>
